build/svg/cmd/sc_choosecontrols.svg

<?xml version="1.0" encoding="UTF-8" standalone="no"?>
<svg
   xmlns:dc="http://purl.org/dc/elements/1.1/"
   xmlns:cc="http://creativecommons.org/ns#"
   xmlns:rdf="http://www.w3.org/1999/02/22-rdf-syntax-ns#"
   xmlns:svg="http://www.w3.org/2000/svg"
   xmlns="http://www.w3.org/2000/svg"
   xmlns:xlink="http://www.w3.org/1999/xlink"
   xmlns:sodipodi="http://sodipodi.sourceforge.net/DTD/sodipodi-0.dtd"
   xmlns:inkscape="http://www.inkscape.org/namespaces/inkscape"
   height="16"
   viewBox="0 0 4.2333333 4.2333335"
   width="16"
   version="1.1"
   id="svg66"
   sodipodi:docname="sc_choosecontrols.svg"
   inkscape:version="0.92.5 (2060ec1f9f, 2020-04-08)"
   inkscape:export-filename="/home/jupiter007/Libreoffice yaru theme fullcolor/build/cmd/sc_choosecontrols.png"
   inkscape:export-xdpi="95"
   inkscape:export-ydpi="95">
  <metadata
     id="metadata72">
    <rdf:RDF>
      <cc:Work
         rdf:about="">
        <dc:format>image/svg+xml</dc:format>
        <dc:type
           rdf:resource="http://purl.org/dc/dcmitype/StillImage" />
      </cc:Work>
    </rdf:RDF>
  </metadata>
  <defs
     id="defs70" />
  <sodipodi:namedview
     pagecolor="#ffffff"
     bordercolor="#666666"
     borderopacity="1"
     objecttolerance="10"
     gridtolerance="10"
     guidetolerance="10"
     inkscape:pageopacity="0"
     inkscape:pageshadow="2"
     inkscape:window-width="1920"
     inkscape:window-height="1011"
     id="namedview68"
     showgrid="true"
     inkscape:zoom="14.75"
     inkscape:cx="3.0426488"
     inkscape:cy="-0.97584728"
     inkscape:window-x="0"
     inkscape:window-y="32"
     inkscape:window-maximized="1"
     inkscape:current-layer="svg66">
    <inkscape:grid
       type="xygrid"
       id="grid890" />
  </sodipodi:namedview>
  <linearGradient
     id="a"
     gradientTransform="matrix(.67911689 0 0 .50770063 -435.40827 -335.44457)"
     gradientUnits="userSpaceOnUse"
     x1="731.05701"
     x2="731.05701"
     y1="654.815"
     y2="619.30701">
    <stop
       offset="0"
       stop-color="#55c1ec"
       id="stop2" />
    <stop
       offset="1"
       stop-color="#3689e6"
       id="stop4" />
  </linearGradient>
  <linearGradient
     id="b"
     gradientTransform="matrix(.04089215 0 0 .44199979 -16.518546 -90.06334)"
     gradientUnits="userSpaceOnUse"
     x1="292.85699"
     x2="292.85699"
     y1="211.076"
     y2="233.827">
    <stop
       offset="0"
       id="stop7" />
    <stop
       offset="1"
       stop-opacity="0"
       id="stop9" />
  </linearGradient>
  <linearGradient
     id="c"
     gradientUnits="userSpaceOnUse"
     x1="9.843156"
     x2="10.938993"
     y1="5.636917"
     y2="10.837817">
    <stop
       offset="0"
       stop-color="#64baff"
       id="stop12" />
    <stop
       offset="1"
       stop-color="#3689e6"
       id="stop14" />
  </linearGradient>
  <linearGradient
     id="d">
    <stop
       offset="0"
       stop-color="#fff"
       id="stop17" />
    <stop
       offset=".10605836"
       stop-color="#fff"
       stop-opacity=".099265"
       id="stop19" />
    <stop
       offset=".99998999"
       stop-color="#fff"
       stop-opacity="0"
       id="stop21" />
    <stop
       offset="1"
       stop-color="#fff"
       stop-opacity=".551471"
       id="stop23" />
  </linearGradient>
  <linearGradient
     id="e"
     gradientUnits="userSpaceOnUse"
     x1="2.910417"
     x2="2.910417"
     xlink:href="#d"
     y1="293.4281"
     y2="294.35416" />
  <linearGradient
     id="f"
     gradientUnits="userSpaceOnUse"
     x1="2.910417"
     x2="2.910417"
     xlink:href="#d"
     y1="291.44373"
     y2="295.94165" />
  <rect
     y="-8.6897664e-08"
     x="2.1166663"
     height="2.1166668"
     width="2.1166666"
     id="rect894"
     style="opacity:0.6;fill:#000000;fill-opacity:1;fill-rule:nonzero;stroke:none;stroke-width:0.5291667;stroke-linecap:round;stroke-linejoin:round;stroke-miterlimit:4;stroke-dasharray:none;stroke-opacity:0.98705498"
     ry="0.26458332" />
  <rect
     style="opacity:1;fill:#ffffff;fill-opacity:1;fill-rule:nonzero;stroke:none;stroke-width:0.5291667;stroke-linecap:round;stroke-linejoin:round;stroke-miterlimit:4;stroke-dasharray:none;stroke-opacity:0.98705498"
     id="rect892"
     width="1.5875001"
     height="1.5875001"
     x="2.3812499"
     y="0.26458329" />
  <rect
     ry="0.26458332"
     style="opacity:0.6;fill:#000000;fill-opacity:1;fill-rule:nonzero;stroke:none;stroke-width:0.5291667;stroke-linecap:round;stroke-linejoin:round;stroke-miterlimit:4;stroke-dasharray:none;stroke-opacity:0.98705498"
     id="rect896"
     width="2.1166666"
     height="2.1166668"
     x="2.1166663"
     y="2.1166666" />
  <rect
     y="2.3812499"
     x="2.3812499"
     height="1.5875001"
     width="1.5875001"
     id="rect898"
     style="opacity:1;fill:#ffffff;fill-opacity:1;fill-rule:nonzero;stroke:none;stroke-width:0.5291667;stroke-linecap:round;stroke-linejoin:round;stroke-miterlimit:4;stroke-dasharray:none;stroke-opacity:0.98705498" />
  <path
     style="fill:#7c436f;fill-opacity:1;stroke:none;stroke-width:0.26458335px;stroke-linecap:butt;stroke-linejoin:miter;stroke-opacity:1"
     d="M 2.6458334,1.5875 3.1750001,0.5291667 c 0,0 0.5291666,1.0583333 0.5291666,1.0583333 H 2.6458334"
     id="path900"
     inkscape:connector-curvature="0" />
  <path
     inkscape:connector-curvature="0"
     id="path902"
     d="m 2.6458334,2.6458334 0.5291667,1.0583333 c 0,0 0.5291666,-1.0583333 0.5291666,-1.0583333 H 2.6458334"
     style="fill:#7c436f;fill-opacity:1;stroke:none;stroke-width:0.26458335px;stroke-linecap:butt;stroke-linejoin:miter;stroke-opacity:1" />
  <ellipse
     style="opacity:1;fill:#7c436f;fill-opacity:1;fill-rule:nonzero;stroke:none;stroke-width:0.5291667;stroke-linecap:round;stroke-linejoin:round;stroke-miterlimit:4;stroke-dasharray:none;stroke-opacity:0.98705498"
     id="path904"
     cx="1.0583332"
     cy="1.0583334"
     rx="1.0583332"
     ry="1.0583334" />
  <path
     style="color:#000000;font-style:normal;font-variant:normal;font-weight:normal;font-stretch:normal;font-size:medium;line-height:normal;font-family:sans-serif;font-variant-ligatures:normal;font-variant-position:normal;font-variant-caps:normal;font-variant-numeric:normal;font-variant-alternates:normal;font-feature-settings:normal;text-indent:0;text-align:start;text-decoration:none;text-decoration-line:none;text-decoration-style:solid;text-decoration-color:#000000;letter-spacing:normal;word-spacing:normal;text-transform:none;writing-mode:lr-tb;direction:ltr;text-orientation:mixed;dominant-baseline:auto;baseline-shift:baseline;text-anchor:start;white-space:normal;shape-padding:0;clip-rule:nonzero;display:inline;overflow:visible;visibility:visible;opacity:1;isolation:auto;mix-blend-mode:normal;color-interpolation:sRGB;color-interpolation-filters:linearRGB;solid-color:#000000;solid-opacity:1;vector-effect:none;fill:#ffffff;fill-opacity:1;fill-rule:nonzero;stroke:none;stroke-width:0.39687505;stroke-linecap:butt;stroke-linejoin:miter;stroke-miterlimit:4;stroke-dasharray:none;stroke-dashoffset:0;stroke-opacity:1;marker:none;color-rendering:auto;image-rendering:auto;shape-rendering:auto;text-rendering:auto;enable-background:accumulate"
     id="path4135-2-8"
     d="M 1.6802025,0.38723778 0.77754802,1.2883791 0.43645985,0.9481991 0.2155184,1.1689266 0.77754812,1.729429 1.9011479,0.60796471 Z"
     inkscape:connector-curvature="0"
     sodipodi:nodetypes="ccccccc" />
  <rect
     y="2.1166668"
     x="-4.4408921e-16"
     height="2.1166668"
     width="2.1166666"
     id="rect927"
     style="opacity:1;fill:#7c436f;fill-opacity:1;fill-rule:nonzero;stroke:none;stroke-width:0.5291667;stroke-linecap:round;stroke-linejoin:round;stroke-miterlimit:4;stroke-dasharray:none;stroke-opacity:0.98705498"
     ry="0.26458332" />
  <path
     sodipodi:nodetypes="ccccccc"
     inkscape:connector-curvature="0"
     d="M 1.6802026,2.5039046 0.77754814,3.4050459 0.43645997,3.0648659 0.21551852,3.2855934 0.77754824,3.8460958 1.901148,2.7246315 Z"
     id="path938"
     style="color:#000000;font-style:normal;font-variant:normal;font-weight:normal;font-stretch:normal;font-size:medium;line-height:normal;font-family:sans-serif;font-variant-ligatures:normal;font-variant-position:normal;font-variant-caps:normal;font-variant-numeric:normal;font-variant-alternates:normal;font-feature-settings:normal;text-indent:0;text-align:start;text-decoration:none;text-decoration-line:none;text-decoration-style:solid;text-decoration-color:#000000;letter-spacing:normal;word-spacing:normal;text-transform:none;writing-mode:lr-tb;direction:ltr;text-orientation:mixed;dominant-baseline:auto;baseline-shift:baseline;text-anchor:start;white-space:normal;shape-padding:0;clip-rule:nonzero;display:inline;overflow:visible;visibility:visible;opacity:1;isolation:auto;mix-blend-mode:normal;color-interpolation:sRGB;color-interpolation-filters:linearRGB;solid-color:#000000;solid-opacity:1;vector-effect:none;fill:#ffffff;fill-opacity:1;fill-rule:nonzero;stroke:none;stroke-width:0.39687505;stroke-linecap:butt;stroke-linejoin:miter;stroke-miterlimit:4;stroke-dasharray:none;stroke-dashoffset:0;stroke-opacity:1;marker:none;color-rendering:auto;image-rendering:auto;shape-rendering:auto;text-rendering:auto;enable-background:accumulate" />
</svg>

<svg xmlns="http://www.w3.org/2000/svg" height="16" viewBox="0 0 4.233 4.233" width="16"><linearGradient id="a"><stop offset="0" stop-color="#fff"/><stop offset=".106" stop-color="#fff" stop-opacity=".099"/><stop offset="1" stop-color="#fff" stop-opacity="0"/><stop offset="1" stop-color="#fff" stop-opacity=".551"/></linearGradient><rect x="2.117" height="2.117" width="2.117" ry=".265" opacity=".6"/><path fill="#fff" d="M2.381.265h1.588v1.588H2.381z"/><rect ry=".265" width="2.117" height="2.117" x="2.117" y="2.117" opacity=".6"/><path fill="#fff" d="M2.381 2.381h1.588v1.588H2.381z"/><path d="M2.646 1.587L3.175.53l.53 1.058h-1.06M2.646 2.646l.529 1.058.53-1.058h-1.06" fill="#7c436f"/><circle cx="1.058" cy="1.058" fill="#7c436f" r="1.058"/><path style="line-height:normal;font-variant-ligatures:normal;font-variant-position:normal;font-variant-caps:normal;font-variant-numeric:normal;font-variant-alternates:normal;font-feature-settings:normal;text-indent:0;text-align:start;text-decoration-line:none;text-decoration-style:solid;text-decoration-color:#000;text-transform:none;text-orientation:mixed;white-space:normal;shape-padding:0;isolation:auto;mix-blend-mode:normal;solid-color:#000;solid-opacity:1;marker:none" d="M1.68.387l-.902.901-.342-.34-.22.22.562.561L1.9.608z" color="#000" font-weight="400" font-family="sans-serif" overflow="visible" fill="#fff"/><rect y="2.117" height="2.117" width="2.117" ry=".265" fill="#7c436f"/><path d="M1.68 2.504l-.902.901-.342-.34-.22.22.562.561L1.9 2.725z" style="line-height:normal;font-variant-ligatures:normal;font-variant-position:normal;font-variant-caps:normal;font-variant-numeric:normal;font-variant-alternates:normal;font-feature-settings:normal;text-indent:0;text-align:start;text-decoration-line:none;text-decoration-style:solid;text-decoration-color:#000;text-transform:none;text-orientation:mixed;white-space:normal;shape-padding:0;isolation:auto;mix-blend-mode:normal;solid-color:#000;solid-opacity:1;marker:none" color="#000" font-weight="400" font-family="sans-serif" overflow="visible" fill="#fff"/></svg>
